Apricity Icons/24/panel/fusion-icon-panel.svg

<svg xmlns="http://www.w3.org/2000/svg" width="24" height="24" version="1">
 <defs>
  <style id="current-color-scheme" type="text/css">
   .ColorScheme-Text { color:#dfdfdf; } .ColorScheme-Highlight { color:#4285f4; }
  </style>
 </defs>
 <path style="fill:currentColor" class="ColorScheme-Text" d="m4.8008 4c-0.4432 0-0.8008 0.3576-0.8008 0.8008v14.398c0 0.443 0.3576 0.801 0.8008 0.801h7.9043 3.3301 3.1641c0.443 0 0.801-0.358 0.801-0.801v-14.398c0-0.4434-0.358-0.801-0.801-0.801zm1.1992 2h12.033l-0.015 12.018h-3.018l-4-6.018h4l-8-5v9l2.5-3.5 2.5 5.5176h-6.0098z"/>
</svg>

<svg xmlns="http://www.w3.org/2000/svg" width="24" height="24" version="1"><defs><style id="current-color-scheme" type="text/css"></style></defs><path d="M4.8 4a.8.8 0 0 0-.8.8V19.2a.8.8 0 0 0 .8.8H19.2a.8.8 0 0 0 .801-.8V4.8A.8.8 0 0 0 19.2 4zM6 6h12.033l-.015 12.018H15L11 12h4L7 7v9l2.5-3.5 2.5 5.518H5.99z" fill="currentColor" color="#dfdfdf"/></svg>
